coffee-to-go-outline.svg

<svg fill="currentColor" viewBox="0 0 24 24"><path d="M3 3v8a4 4 0 0 0 4 4h4a4 4 0 0 0 4-4v-1h2c1.11 0 2-.89 2-2V5a2 2 0 0 0-2-2zm2 2h8v6a2 2 0 0 1-2 2H7a2 2 0 0 1-2-2zm10 0h2v3h-2zm1.67 8.83-1.41 1.41L17 17H3v2h14l-1.74 1.76 1.41 1.41L20.84 18z"/></svg>

<svg  viewBox="0 0 24 24" fill="currentColor"><path  d="M3 3V11A4 4 0 0 0 7 15H11A4 4 0 0 0 15 11V10H17C18.11 10 19 9.11 19 8V5C19 3.9 18.11 3 17 3H3M5 5H13V11A2 2 0 0 1 11 13H7A2 2 0 0 1 5 11V5M15 5H17V8H15V5M16.67 13.83L15.26 15.24L17 17H3V19H17L15.26 20.76L16.67 22.17L20.84 18L16.67 13.83Z"/></svg>
